svg/u1f48b.svg

<svg viewBox="0 0 128 128" xmlns="http://www.w3.org/2000/svg">
  <g>
    <path d="M112.3,6.13C105.57,7.79,98.47,8,93.12,7.83c-16.89-0.54-32.6-4.41-44.71,5.25 c-9.53,7.61-6.72,22.35-9.54,25.17c-0.01,0.01-0.02,0.02-0.03,0.03c-0.01,0.01-0.02,0.02-0.03,0.03c-2.81,2.81-17.56,0-25.17,9.54 C3.99,59.96,8.87,74.28,8.2,90.27c-0.22,5.35-0.66,14.47-2.32,21.19c-0.99,4.01,1.54,7.06,5.15,5.07 c12.98-7.16,21-22.75,27.04-36.6c2.29-5.24,5.9-5.75,10.76-7.93c5.2-2.34,9.35-3.72,14.65-9.02c0.01-0.01,0.02-0.02,0.03-0.03 s0.02-0.02,0.03-0.03c5.3-5.3,6.69-9.45,9.02-14.65c2.18-4.86,2.69-8.47,7.93-10.76c13.85-6.04,29.44-14.06,36.6-27.04 C119.09,6.86,116.3,5.14,112.3,6.13z" fill="#E53935"/>
    <path d="M118.74,21.92c-0.41-2.44-3.33-2.99-5.14-1.18c-8.71,8.69-16.34,17.24-21.87,28.77 c-4.48,9.34-6.53,17.44-13.81,25.08c-8.6,9.03-20.57,14.29-29.95,18.69c-13.03,6.1-20.53,13.6-28.61,21.83 c-1.89,1.92-1.15,4.99,1.47,5.18c6.37,0.45,16.52,1.13,28.27,1.72c18.28,0.92,36.49-2.1,53.12-17.66 c17.37-16.25,17.37-32.69,18.01-50.44C120.66,42.16,119.7,27.68,118.74,21.92z" fill="#E53935"/>
  </g>
</svg>

<svg viewBox="0 0 128 128" xmlns="http://www.w3.org/2000/svg">
  <defs/>
  <path d="M112.3,6.13 C105.57,7.79 98.47,8 93.12,7.83 C76.23,7.29 60.52,3.42 48.41,13.08 C38.88,20.69 41.69,35.43 38.87,38.25 C38.86,38.26 38.85,38.27 38.84,38.28 C38.83,38.29 38.82,38.3 38.81,38.31 C36,41.12 21.25,38.31 13.64,47.85 C3.99,59.96 8.87,74.28 8.2,90.27 C7.98,95.62 7.54,104.74 5.88,111.46 C4.89,115.47 7.42,118.52 11.03,116.53 C24.01,109.37 32.03,93.78 38.07,79.93 C40.36,74.69 43.97,74.18 48.83,72 C54.03,69.66 58.18,68.28 63.48,62.98 C63.49,62.97 63.5,62.96 63.51,62.95 C63.52,62.94 63.53,62.93 63.54,62.92 C68.84,57.62 70.23,53.47 72.56,48.27 C74.74,43.41 75.25,39.8 80.49,37.51 C94.34,31.47 109.93,23.45 117.09,10.47 C119.09,6.86 116.3,5.14 112.3,6.13 Z" fill="#E53935"/>
  <path d="M118.74,21.92 C118.33,19.48 115.41,18.93 113.6,20.74 C104.89,29.43 97.26,37.98 91.73,49.51 C87.25,58.85 85.2,66.95 77.92,74.59 C69.32,83.62 57.35,88.88 47.97,93.28 C34.94,99.38 27.44,106.88 19.36,115.11 C17.47,117.03 18.21,120.1 20.83,120.29 C27.2,120.74 37.35,121.42 49.1,122.01 C67.38,122.93 85.59,119.91 102.22,104.35 C119.59,88.1 119.59,71.66 120.23,53.91 C120.66,42.16 119.7,27.68 118.74,21.92 Z" fill="#E53935"/>
</svg>
